icon-themes/breeze_svg/cmd/lc_dataarearefresh.svg

<svg viewBox="0 0 24 24" xmlns="http://www.w3.org/2000/svg"><path d="m17.5625 15.0625c-.433427 0-.832855.1201-1.1875.3125l.75.75c.137094-.041.286709-.0625.4375-.0625.831 0 1.5.669 1.5 1.5 0 .1508-.02148.3004-.0625.4375l.75.75c.192495-.3547.3125-.7541.3125-1.1875 0-1.385-1.115-2.5-2.5-2.5zm-2.1875 1.3125c-.192495.3547-.3125.7541-.3125 1.1875 0 1.385 1.115 2.5 2.5 2.5.433427 0 .832855-.1201 1.1875-.3125l-.75-.75c-.137094.041-.286709.0625-.4375.0625-.831 0-1.5-.669-1.5-1.5 0-.1508.02147-.3004.0625-.4375z" fill="#1d99f3"/><path d="m4 4v16h6v-12h10v-4h-10zm1 1h4v2h-4zm5 0h4v2h-4zm5 0h4v2h-4zm-10 3h4v2h-4zm0 3h4v2h-4zm0 3h4v2h-4zm0 3h4v2h-4z" fill="#4d4d4d"/></svg>

<svg viewBox="0 0 24 24" xmlns="http://www.w3.org/2000/svg">
  <path
     style="fill:#1d99f3"
     d="m 17.5625,15.0625 c -0.433427,0 -0.832855,0.1201 -1.1875,0.3125 l 0.75,0.75 c 0.137094,-0.041 0.286709,-0.0625 0.4375,-0.0625 0.831,0 1.5,0.669 1.5,1.5 0,0.1508 -0.02148,0.3004 -0.0625,0.4375 l 0.75,0.75 c 0.192495,-0.3547 0.3125,-0.7541 0.3125,-1.1875 0,-1.385 -1.115,-2.5 -2.5,-2.5 z M 15.375,16.375 c -0.192495,0.3547 -0.3125,0.7541 -0.3125,1.1875 0,1.385 1.115,2.5 2.5,2.5 0.433427,0 0.832855,-0.1201 1.1875,-0.3125 L 18,19 c -0.137094,0.041 -0.286709,0.0625 -0.4375,0.0625 -0.831,0 -1.5,-0.669 -1.5,-1.5 0,-0.1508 0.02147,-0.3004 0.0625,-0.4375 z"
     />
  <path
     style="fill:#4d4d4d"
     d="m 4,4 v 16 h 6 V 8 H 20 V 4 H 10 Z M 5,5 H 9 V 7 H 5 Z m 5,0 h 4 v 2 h -4 z m 5,0 h 4 V 7 H 15 Z M 5,8 h 4 v 2 H 5 Z m 0,3 h 4 v 2 H 5 Z m 0,3 h 4 v 2 H 5 Z m 0,3 h 4 v 2 H 5 Z"
     />
</svg>
